lib/flags/ly-libya.svg

<svg xmlns="http://www.w3.org/2000/svg" fill="none" aria-hidden="true" viewBox="0 0 42 30"><g id="Country=LY - Libya, Size=sm (36x24)" filter="url(#filter0_dd_91_26649)"><g clip-path="url(#clip0_91_26649)"><g id="flag"><mask id="mask0_91_26649" width="36" height="24" x="3" y="2" maskUnits="userSpaceOnUse" style="mask-type:alpha"><rect id="mask" width="36" height="24" x="3" y="2" fill="white"/></mask><g mask="url(#mask0_91_26649)"><g id="contents"><path id="bottom" fill="#55BA07" fill-rule="evenodd" d="M3 20H39V26H3V20Z" clip-rule="evenodd"/><path id="middle" fill="#1D1D1D" fill-rule="evenodd" d="M3 8H39V20H3V8Z" clip-rule="evenodd"/><path id="top" fill="#E11C1B" fill-rule="evenodd" d="M3 2H39V8H3V2Z" clip-rule="evenodd"/><g id="mark"><path id="Combined shape 1695" fill="white" fill-rule="evenodd" d="M20.7721 17.0658C18.756 16.6954 18.233 15.7577 18.2546 14.3113C18.2546 12.7808 19.1613 11.2316 20.7516 11.0623C22.342 10.8929 23.6445 11.4202 24.3273 12.1561C23.7562 10.1586 21.8645 9.94009 20.412 9.94009C18.2252 9.9231 15.9824 11.4001 15.9824 14.1787C15.9824 16.5993 17.9593 18.4194 20.4751 18.4644C23.6204 18.4644 24.1126 16.5337 24.2031 15.876C24.0212 15.992 23.852 16.1305 23.6783 16.2726C23.0458 16.7902 22.3538 17.3564 20.7721 17.0658ZM25.7958 13.2911L24.3064 13.7077L25.9743 14.2878L25.7421 15.8418L26.8725 14.7726L28.5126 15.0727L27.4044 13.9209L28.3855 12.7439L27.0157 13.0008L26.0478 12.0286L25.7958 13.2911Z" clip-rule="evenodd"/></g></g></g></g></g></g><defs><filter id="filter0_dd_91_26649" width="42" height="30" x="0" y="0" color-interpolation-filters="sRGB" filterUnits="userSpaceOnUse"><feFlood flood-opacity="0" result="BackgroundImageFix"/><feColorMatrix in="SourceAlpha" result="hardAlpha" values="0 0 0 0 0 0 0 0 0 0 0 0 0 0 0 0 0 0 127 0"/><feOffset dy="1"/><feGaussianBlur stdDeviation="1"/><feColorMatrix values="0 0 0 0 0.0627451 0 0 0 0 0.0941176 0 0 0 0 0.156863 0 0 0 0.06 0"/><feBlend in2="BackgroundImageFix" result="effect1_dropShadow_91_26649"/><feColorMatrix in="SourceAlpha" result="hardAlpha" values="0 0 0 0 0 0 0 0 0 0 0 0 0 0 0 0 0 0 127 0"/><feOffset dy="1"/><feGaussianBlur stdDeviation="1.5"/><feColorMatrix values="0 0 0 0 0.0627451 0 0 0 0 0.0941176 0 0 0 0 0.156863 0 0 0 0.1 0"/><feBlend in2="effect1_dropShadow_91_26649" result="effect2_dropShadow_91_26649"/><feBlend in="SourceGraphic" in2="effect2_dropShadow_91_26649" result="shape"/></filter><clipPath id="clip0_91_26649"><rect width="36" height="24" x="3" y="2" fill="white" rx="2"/></clipPath></defs></svg>

<svg xmlns="http://www.w3.org/2000/svg" fill="none" aria-hidden="true" viewBox="0 0 42 30"><g filter="url(#a)"><g clip-path="url(#b)"><mask id="c" width="36" height="24" x="3" y="2" maskUnits="userSpaceOnUse" style="mask-type:alpha"><path fill="#fff" d="M3 2h36v24H3z"/></mask><g fill-rule="evenodd" clip-rule="evenodd" mask="url(#c)"><path fill="#55BA07" d="M3 20h36v6H3v-6Z"/><path fill="#1D1D1D" d="M3 8h36v12H3V8Z"/><path fill="#E11C1B" d="M3 2h36v6H3V2Z"/><path fill="#fff" d="M20.772 17.066c-2.016-.37-2.539-1.308-2.517-2.755 0-1.53.906-3.08 2.497-3.249 1.59-.17 2.893.358 3.575 1.094-.57-1.997-2.463-2.216-3.915-2.216-2.187-.017-4.43 1.46-4.43 4.239 0 2.42 1.977 4.24 4.493 4.285 3.145 0 3.638-1.93 3.728-2.588-.182.116-.351.255-.525.397-.632.517-1.324 1.083-2.906.793Zm5.024-3.775-1.49.417 1.668.58-.232 1.554 1.13-1.07 1.64.3-1.108-1.151.982-1.177-1.37.257-.968-.972-.252 1.262Z"/></g></g></g><defs><clipPath id="b"><rect width="36" height="24" x="3" y="2" fill="#fff" rx="2"/></clipPath><filter id="a" width="42" height="30" x="0" y="0" color-interpolation-filters="sRGB" filterUnits="userSpaceOnUse"><feFlood flood-opacity="0" result="BackgroundImageFix"/><feColorMatrix in="SourceAlpha" result="hardAlpha" values="0 0 0 0 0 0 0 0 0 0 0 0 0 0 0 0 0 0 127 0"/><feOffset dy="1"/><feGaussianBlur stdDeviation="1"/><feColorMatrix values="0 0 0 0 0.0627451 0 0 0 0 0.0941176 0 0 0 0 0.156863 0 0 0 0.06 0"/><feBlend in2="BackgroundImageFix" result="effect1_dropShadow_91_26649"/><feColorMatrix in="SourceAlpha" result="hardAlpha" values="0 0 0 0 0 0 0 0 0 0 0 0 0 0 0 0 0 0 127 0"/><feOffset dy="1"/><feGaussianBlur stdDeviation="1.5"/><feColorMatrix values="0 0 0 0 0.0627451 0 0 0 0 0.0941176 0 0 0 0 0.156863 0 0 0 0.1 0"/><feBlend in2="effect1_dropShadow_91_26649" result="effect2_dropShadow_91_26649"/><feBlend in="SourceGraphic" in2="effect2_dropShadow_91_26649" result="shape"/></filter></defs></svg>
